file/cardinal-health.svg

<svg clip-rule="evenodd" fill-rule="evenodd" stroke-linejoin="round" stroke-miterlimit="1.41421" viewBox="0 0 560 400" xmlns="http://www.w3.org/2000/svg" xmlns:xlink="http://www.w3.org/1999/xlink"><clipPath id="a"><path clip-rule="evenodd" d="m-2.088-6.335v66.614h160.082v-66.614"/></clipPath><clipPath id="b"><path clip-rule="evenodd" d="m-2.088-6.335v66.614h160.082v-66.614"/></clipPath><g transform="matrix(2.54122 0 0 2.54122 92.572 131.071)"><g clip-path="url(#a)"><path d="m39.956 20.091c.587-.411 1.192-.778 1.817-1.172.464.479.902.943 1.314 1.441-.611.327-1.201.698-1.765 1.038-.426-.439-.884-.886-1.366-1.307m-2.43-1.994c.56-.46 1.176-.919 1.85-1.372.504.431.992.851 1.453 1.28-.653.406-1.271.804-1.845 1.24-.462-.403-.95-.763-1.458-1.148zm44.415-4.718-.113-.091c-14.849.603-28.78 5.247-38.148 11.025-.393-.607-.837-1.179-1.33-1.775 8.408-5.19 20.139-9.523 30.129-10.83l-.135-.075c-10.693 1.073-21.153 4.323-28.592 8.354-.298-.529-.66-1.068-1.074-1.587 6.508-3.746 14.884-6.761 22.881-8.227l-.115-.081c-9.334 1.413-17.774 4.021-23.603 7.327-.422-.47-.883-.913-1.389-1.37.61-.37 1.244-.725 1.91-1.078.289.297.572.602.84.913l.329-.313c-.184-.311-.382-.604-.593-.9 4.794-2.433 10.739-4.369 15.365-5.277l-.125-.078c-4.731.841-11.027 2.276-15.846 4.58-3.959-4.694-11.999-7.899-23.682-10.17l-.102.068c10.564 2.396 18.305 5.99 23.069 10.453-.693.354-1.347.728-1.959 1.126-5.606-4.61-15.518-8.746-28.588-10.675l-.111.063c11.521 2.093 21.16 6.251 27.649 11.348-.645.491-1.218.995-1.701 1.541-7.204-5.103-18.615-9.397-33.878-11.373l-.106.071c12.623 2.016 25.771 6.465 34.695 13.97-1.176 1.007-2.127 2.065-2.79 3.143l.376.396c.967-.941 2.077-1.859 3.307-2.76.465.396.915.827 1.355 1.257-3.069 2.104-5.269 4.375-6.256 6.562l.404.334c1.705-1.972 4.085-3.929 6.912-5.804.513.566 1.001 1.104 1.465 1.691-5.76 3.794-9.56 7.983-10.41 11.834l.447.306c2.428-4.096 6.325-7.678 10.988-10.819.726 1.017 1.392 2.056 1.98 3.174l.409-.264c-.211-1.196-.641-2.401-1.273-3.599 11.719-7.433 27.691-11.799 37.409-12.39z" fill="#f04e44" fill-rule="nonzero"/></g><g clip-path="url(#b)"><path d="m45.712 50.052c-.25.096-.99.471-2.849.471-4.001 0-6.058-2.922-6.058-6.765 0-3.842 2.057-6.763 5.983-6.763 1.72 0 2.624.371 2.926.491l-.129 2.187c-.227-.141-.943-.681-2.496-.681-1.995 0-3.713 1.369-3.713 4.766 0 3.411 1.718 4.768 3.713 4.768 1.171 0 1.946-.286 2.491-.678zm6.884-.827c-.313.345-1.148 1.257-2.697 1.257-1.709 0-2.927-1.034-2.927-2.84 0-2.62 2.318-3.294 4.686-3.294h.897v-.364c0-.958-.471-1.837-1.81-1.837-1.17 0-2.209.56-2.661.939l-.131-1.879c.662-.305 1.568-.719 2.924-.719 2.909 0 3.868 1.435 3.868 3.656v4.476c0 .697.076 1.331.127 1.703h-2.107c-.115-.372-.136-.837-.136-1.098zm40.33 0c-.31.345-1.145 1.257-2.691 1.257-1.709 0-2.937-1.034-2.937-2.84 0-2.62 2.333-3.294 4.685-3.294h.902v-.364c0-.958-.469-1.837-1.813-1.837-1.165 0-2.204.56-2.654.939l-.135-1.879c.654-.305 1.572-.719 2.924-.719 2.915 0 3.854 1.435 3.854 3.656v4.476c0 .697.08 1.331.141 1.703h-2.1c-.117-.372-.137-.837-.137-1.098zm-21.945-13.014v12.46c0 .699.021 1.299.081 1.651h-2.196c-.035-.271-.071-.779-.071-1.255h-.054c-.134.27-.749 1.414-2.589 1.414-2.417 0-3.415-2.302-3.415-4.989 0-3.163 1.192-5.005 3.601-5.005 1.568 0 2.125.939 2.267 1.133h.045v-5.409zm63.685 4.414h1.988v.956h-1.988v6.391c0 .78.098 1.52 1.12 1.52.462 0 .688-.104.868-.157v.985c-.114.058-.418.137-1.118.137-1.675 0-2.022-1.098-2.022-2.184v-6.691h-1.462v-.956h1.462v-1.939l1.152-.323zm-8.952 8.528c-.249.323-.779 1.303-2.628 1.303-1.823 0-2.849-1.137-2.849-2.86 0-2.469 2.1-3.106 4.597-3.106h.826v-.787h.001c0-1.336-.478-2.184-2.113-2.184-1.31 0-2.233.915-2.347 1.013l-.174-1.171c.549-.342 1.354-.859 2.619-.859 2.709 0 3.174 1.966 3.174 2.988v4.669c0 .728.053 1.447.111 2.164h-1.119l-.06-1.17zm-12.519-3.308c0 3.587 2.352 3.626 2.783 3.626.633 0 1.543-.311 2.098-.8l.061 1.232c-.464.258-1.103.552-2.273.552-3.811 0-3.93-4.004-3.93-4.977 0-3.311 1.254-4.98 3.418-4.98 2.396 0 3.436 1.901 3.436 5.347zm-56.146-3.602c0-.611-.023-1.17-.079-1.614h2.113c.016.596.066.757.066 1.344h.037c.184-.418.635-1.484 2.481-1.484.148 0 .263.03.397.052v2.167c-.1-.023-.342-.076-.663-.076-.959 0-2.016.591-2.016 2.399v5.293h-2.336zm21.018 0c0-.611-.02-1.17-.076-1.614h2.197c.017.307.066.987.066 1.229h.035c.198-.298.813-1.369 2.542-1.369 2.021 0 2.922 1.289 2.922 3.19v6.645h-2.342v-6.273c0-1.193-.706-1.646-1.502-1.646-.777 0-1.501.428-1.501 1.646v6.273h-2.341zm25.39 8.08h-1.182v-14.112h1.182v6.032h5.171v-6.032h1.186v14.112h-1.186v-7.046h-5.171zm27.058-14.112v14.111h-1.147v-14.111zm-30.791 0v14.111h-2.346v-14.111zm-24.033 14.111h-2.341v-9.694h2.341zm63.707-14.111v5.305h.02c.273-.341.866-1.015 2.343-1.015 1.82 0 2.826 1.486 2.826 2.838v6.983h-1.168v-6.719c0-1.286-.754-2.155-1.985-2.155-1.233 0-2.035.826-2.035 2.155v6.719h-1.155v-14.111zm-13.737 9.232h-.921v.001c-2.039 0-3.286.605-3.286 2.128 0 .964.604 1.863 1.887 1.863.517 0 2.32-.208 2.32-2.851zm-32.776.145h-.856c-1.114 0-2.531.332-2.531 1.823 0 .883.58 1.487 1.479 1.487 1.258 0 1.908-1.021 1.908-2.26zm-40.33 0h-.853c-1.112 0-2.543.332-2.543 1.823 0 .883.58 1.487 1.491 1.487 1.248 0 1.905-1.021 1.905-2.26zm14.242 3.18c1.379 0 1.853-1.49 1.853-3.318 0-1.877-.536-3.247-1.813-3.247-1.307 0-1.762 1.253-1.762 3.191.001 2.248.366 3.374 1.722 3.374zm50.728-3.951c0-2.083-.846-3.301-2.156-3.301-1.482 0-2.174 1.397-2.174 3.301zm-41.797-6.021h-2.414v-2.278h2.414z" fill-rule="nonzero"/></g></g></svg>

<?xml version="1.0" encoding="UTF-8" standalone="no"?>
<!DOCTYPE svg PUBLIC "-//W3C//DTD SVG 1.1//EN" "http://www.w3.org/Graphics/SVG/1.1/DTD/svg11.dtd">
<svg width="100%" height="100%" viewBox="0 0 560 400" version="1.1" xmlns="http://www.w3.org/2000/svg" xmlns:xlink="http://www.w3.org/1999/xlink" xml:space="preserve" xmlns:serif="http://www.serif.com/" style="fill-rule:evenodd;clip-rule:evenodd;stroke-linejoin:round;stroke-miterlimit:1.41421;">
    <g transform="matrix(2.54122,0,0,2.54122,92.572,131.071)">
        <clipPath id="_clip1">
            <path d="M-2.088,-6.335L-2.088,60.279L157.994,60.279L157.994,-6.335"/>
        </clipPath>
        <g clip-path="url(#_clip1)">
            <path d="M39.956,20.091C40.543,19.68 41.148,19.313 41.773,18.919C42.237,19.398 42.675,19.862 43.087,20.36C42.476,20.687 41.886,21.058 41.322,21.398C40.896,20.959 40.438,20.512 39.956,20.091M37.526,18.097C38.086,17.637 38.702,17.178 39.376,16.725C39.88,17.156 40.368,17.576 40.829,18.005C40.176,18.411 39.558,18.809 38.984,19.245C38.522,18.842 38.034,18.482 37.526,18.097ZM81.941,13.379L81.828,13.288C66.979,13.891 53.048,18.535 43.68,24.313C43.287,23.706 42.843,23.134 42.35,22.538C50.758,17.348 62.489,13.015 72.479,11.708L72.344,11.633C61.651,12.706 51.191,15.956 43.752,19.987C43.454,19.458 43.092,18.919 42.678,18.4C49.186,14.654 57.562,11.639 65.559,10.173L65.444,10.092C56.11,11.505 47.67,14.113 41.841,17.419C41.419,16.949 40.958,16.506 40.452,16.049C41.062,15.679 41.696,15.324 42.362,14.971C42.651,15.268 42.934,15.573 43.202,15.884L43.531,15.571C43.347,15.26 43.149,14.967 42.938,14.671C47.732,12.238 53.677,10.302 58.303,9.394L58.178,9.316C53.447,10.157 47.151,11.592 42.332,13.896C38.373,9.202 30.333,5.997 18.65,3.726L18.548,3.794C29.112,6.19 36.853,9.784 41.617,14.247C40.924,14.601 40.27,14.975 39.658,15.373C34.052,10.763 24.14,6.627 11.07,4.698L10.959,4.761C22.48,6.854 32.119,11.012 38.608,16.109C37.963,16.6 37.39,17.104 36.907,17.65C29.703,12.547 18.292,8.253 3.029,6.277L2.923,6.348C15.546,8.364 28.694,12.813 37.618,20.318C36.442,21.325 35.491,22.383 34.828,23.461L35.204,23.857C36.171,22.916 37.281,21.998 38.511,21.097C38.976,21.493 39.426,21.924 39.866,22.354C36.797,24.458 34.597,26.729 33.61,28.916L34.014,29.25C35.719,27.278 38.099,25.321 40.926,23.446C41.439,24.012 41.927,24.55 42.391,25.137C36.631,28.931 32.831,33.12 31.981,36.971L32.428,37.277C34.856,33.181 38.753,29.599 43.416,26.458C44.142,27.475 44.808,28.514 45.396,29.632L45.805,29.368C45.594,28.172 45.164,26.967 44.532,25.769C56.251,18.336 72.223,13.97 81.941,13.379Z" style="fill:rgb(240,78,68);fill-rule:nonzero;"/>
        </g>
        <clipPath id="_clip2">
            <path d="M-2.088,-6.335L-2.088,60.279L157.994,60.279L157.994,-6.335"/>
        </clipPath>
        <g clip-path="url(#_clip2)">
            <path d="M45.712,50.052C45.462,50.148 44.722,50.523 42.863,50.523C38.862,50.523 36.805,47.601 36.805,43.758C36.805,39.916 38.862,36.995 42.788,36.995C44.508,36.995 45.412,37.366 45.714,37.486L45.585,39.673C45.358,39.532 44.642,38.992 43.089,38.992C41.094,38.992 39.376,40.361 39.376,43.758C39.376,47.169 41.094,48.526 43.089,48.526C44.26,48.526 45.035,48.24 45.58,47.848L45.712,50.052ZM52.596,49.225C52.283,49.57 51.448,50.482 49.899,50.482C48.19,50.482 46.972,49.448 46.972,47.642C46.972,45.022 49.29,44.348 51.658,44.348L52.555,44.348L52.555,43.984C52.555,43.026 52.084,42.147 50.745,42.147C49.575,42.147 48.536,42.707 48.084,43.086L47.953,41.207C48.615,40.902 49.521,40.488 50.877,40.488C53.786,40.488 54.745,41.923 54.745,44.144L54.745,48.62C54.745,49.317 54.821,49.951 54.872,50.323L52.765,50.323C52.65,49.951 52.629,49.486 52.629,49.225L52.596,49.225ZM92.926,49.225C92.616,49.57 91.781,50.482 90.235,50.482C88.526,50.482 87.298,49.448 87.298,47.642C87.298,45.022 89.631,44.348 91.983,44.348L92.885,44.348L92.885,43.984C92.885,43.026 92.416,42.147 91.072,42.147C89.907,42.147 88.868,42.707 88.418,43.086L88.283,41.207C88.937,40.902 89.855,40.488 91.207,40.488C94.122,40.488 95.061,41.923 95.061,44.144L95.061,48.62C95.061,49.317 95.141,49.951 95.202,50.323L93.102,50.323C92.985,49.951 92.965,49.486 92.965,49.225L92.926,49.225ZM70.981,36.211L70.981,48.671C70.981,49.37 71.002,49.97 71.062,50.322L68.866,50.322C68.831,50.051 68.795,49.543 68.795,49.067L68.741,49.067C68.607,49.337 67.992,50.481 66.152,50.481C63.735,50.481 62.737,48.179 62.737,45.492C62.737,42.329 63.929,40.487 66.338,40.487C67.906,40.487 68.463,41.426 68.605,41.62L68.65,41.62L68.65,36.211L70.981,36.211ZM134.666,40.625L136.654,40.625L136.654,41.581L134.666,41.581L134.666,47.972C134.666,48.752 134.764,49.492 135.786,49.492C136.248,49.492 136.474,49.388 136.654,49.335L136.654,50.32C136.54,50.378 136.236,50.457 135.536,50.457C133.861,50.457 133.514,49.359 133.514,48.273L133.514,41.582L132.052,41.582L132.052,40.626L133.514,40.626L133.514,38.687L134.666,38.364L134.666,40.625ZM125.714,49.153C125.465,49.476 124.935,50.456 123.086,50.456C121.263,50.456 120.237,49.319 120.237,47.596C120.237,45.127 122.337,44.49 124.834,44.49L125.66,44.49L125.66,43.703L125.661,43.703C125.661,42.367 125.183,41.519 123.548,41.519C122.238,41.519 121.315,42.434 121.201,42.532L121.027,41.361C121.576,41.019 122.381,40.502 123.646,40.502C126.355,40.502 126.82,42.468 126.82,43.49L126.82,48.159C126.82,48.887 126.873,49.606 126.931,50.323L125.812,50.323L125.752,49.153L125.714,49.153ZM113.195,45.845C113.195,49.432 115.547,49.471 115.978,49.471C116.611,49.471 117.521,49.16 118.076,48.671L118.137,49.903C117.673,50.161 117.034,50.455 115.864,50.455C112.053,50.455 111.934,46.451 111.934,45.478C111.934,42.167 113.188,40.498 115.352,40.498C117.748,40.498 118.788,42.399 118.788,45.845L113.195,45.845ZM57.049,42.243C57.049,41.632 57.026,41.073 56.97,40.629L59.083,40.629C59.099,41.225 59.149,41.386 59.149,41.973L59.186,41.973C59.37,41.555 59.821,40.489 61.667,40.489C61.815,40.489 61.93,40.519 62.064,40.541L62.064,42.708C61.964,42.685 61.722,42.632 61.401,42.632C60.442,42.632 59.385,43.223 59.385,45.031L59.385,50.324L57.049,50.324L57.049,42.243ZM78.067,42.243C78.067,41.632 78.047,41.073 77.991,40.629L80.188,40.629C80.205,40.936 80.254,41.616 80.254,41.858L80.289,41.858C80.487,41.56 81.102,40.489 82.831,40.489C84.852,40.489 85.753,41.778 85.753,43.679L85.753,50.324L83.411,50.324L83.411,44.051C83.411,42.858 82.705,42.405 81.909,42.405C81.132,42.405 80.408,42.833 80.408,44.051L80.408,50.324L78.067,50.324L78.067,42.243ZM103.457,50.323L102.275,50.323L102.275,36.211L103.457,36.211L103.457,42.243L108.628,42.243L108.628,36.211L109.814,36.211L109.814,50.323L108.628,50.323L108.628,43.277L103.457,43.277L103.457,50.323ZM130.515,36.211L130.515,50.322L129.368,50.322L129.368,36.211L130.515,36.211ZM99.724,36.211L99.724,50.322L97.378,50.322L97.378,36.211L99.724,36.211ZM75.691,50.322L73.35,50.322L73.35,40.628L75.691,40.628L75.691,50.322ZM139.398,36.211L139.398,41.516L139.418,41.516C139.691,41.175 140.284,40.501 141.761,40.501C143.581,40.501 144.587,41.987 144.587,43.339L144.587,50.322L143.419,50.322L143.419,43.603C143.419,42.317 142.665,41.448 141.434,41.448C140.201,41.448 139.399,42.274 139.399,43.603L139.399,50.322L138.244,50.322L138.244,36.211L139.398,36.211ZM125.661,45.443L124.74,45.443L124.74,45.444C122.701,45.444 121.454,46.049 121.454,47.572C121.454,48.536 122.058,49.435 123.341,49.435C123.858,49.435 125.661,49.227 125.661,46.584L125.661,45.443ZM92.885,45.588L92.029,45.588C90.915,45.588 89.498,45.92 89.498,47.411C89.498,48.294 90.078,48.898 90.977,48.898C92.235,48.898 92.885,47.877 92.885,46.638L92.885,45.588ZM52.555,45.588L51.702,45.588C50.59,45.588 49.159,45.92 49.159,47.411C49.159,48.294 49.739,48.898 50.65,48.898C51.898,48.898 52.555,47.877 52.555,46.638L52.555,45.588ZM66.797,48.768C68.176,48.768 68.65,47.278 68.65,45.45C68.65,43.573 68.114,42.203 66.837,42.203C65.53,42.203 65.075,43.456 65.075,45.394C65.076,47.642 65.441,48.768 66.797,48.768ZM117.525,44.817C117.525,42.734 116.679,41.516 115.369,41.516C113.887,41.516 113.195,42.913 113.195,44.817L117.525,44.817ZM75.728,38.796L73.314,38.796L73.314,36.518L75.728,36.518L75.728,38.796Z" style="fill-rule:nonzero;"/>
        </g>
    </g>
</svg>
